X: 16144
T: Green Grow The Rushes - O
R: barndance
M: 4/4
K: Gmajor
"^A" DGG3/2A/ Bd G2|BAAB/d/ eAAB/d/|e>f ed Bcdd/d/|
eAA>G AB G2:|:"^B" g3/2g/gf edBd|g3/2g/ga2 f/e/d e>f|
g3/2a/gf edBG|A3/2A/Bd ed G2:|

